Newaita-dark/actions/32/document-decrypt.svg

<svg height="32" viewBox="0 0 32 32" width="32" xmlns="http://www.w3.org/2000/svg"><g fill="#e0e0e0"><path d="m15.875 2.894531c-4.394531 0-7.9375 3.542969-7.9375 7.941407v.660156h2.648438v-.660156c0-2.933594 2.359374-5.292969 5.289062-5.292969 2.933594 0 5.292969 2.359375 5.292969 5.292969v7.9375h2.648437v-7.9375c0-4.398438-3.542968-7.941407-7.941406-7.941407zm0 0"/><path d="m8.601562 10.835938h1.320313c.367187 0 .664063.21875.664063.496093v.328125c0 .273438-.296876.496094-.664063.496094h-1.320313c-.367187 0-.664062-.222656-.664062-.496094v-.328125c0-.277343.296875-.496093.664062-.496093zm0 0"/><path d="m7.9375 16.125c-1.464844 0-2.644531 1.183594-2.644531 2.648438v7.9375c0 1.464843 1.179687 2.644531 2.644531 2.644531h15.878906c1.464844 0 2.644532-1.179688 2.644532-2.644531v-7.9375c0-1.464844-1.179688-2.648438-2.644532-2.648438zm1.324219 2.648438h13.230469c.734374 0 1.324218.589843 1.324218 1.320312v5.292969c0 .734375-.589844 1.324219-1.324218 1.324219h-13.230469c-.734375 0-1.324219-.589844-1.324219-1.324219v-5.292969c0-.730469.589844-1.320312 1.324219-1.320312zm0 0"/></g></svg>

<?xml version="1.0" encoding="UTF-8"?>
<svg xmlns="http://www.w3.org/2000/svg" xmlns:xlink="http://www.w3.org/1999/xlink" width="32px" height="32px" viewBox="0 0 32 32" version="1.1">
<g id="surface1">
<path style=" stroke:none;fill-rule:nonzero;fill:rgb(87.843138%,87.843138%,87.843138%);fill-opacity:1;" d="M 15.875 2.894531 C 11.480469 2.894531 7.9375 6.4375 7.9375 10.835938 L 7.9375 11.496094 L 10.585938 11.496094 L 10.585938 10.835938 C 10.585938 7.902344 12.945312 5.542969 15.875 5.542969 C 18.808594 5.542969 21.167969 7.902344 21.167969 10.835938 L 21.167969 18.773438 L 23.816406 18.773438 L 23.816406 10.835938 C 23.816406 6.4375 20.273438 2.894531 15.875 2.894531 Z M 15.875 2.894531 "/>
<path style=" stroke:none;fill-rule:nonzero;fill:rgb(87.843138%,87.843138%,87.843138%);fill-opacity:1;" d="M 8.601562 10.835938 L 9.921875 10.835938 C 10.289062 10.835938 10.585938 11.054688 10.585938 11.332031 L 10.585938 11.660156 C 10.585938 11.933594 10.289062 12.15625 9.921875 12.15625 L 8.601562 12.15625 C 8.234375 12.15625 7.9375 11.933594 7.9375 11.660156 L 7.9375 11.332031 C 7.9375 11.054688 8.234375 10.835938 8.601562 10.835938 Z M 8.601562 10.835938 "/>
<path style=" stroke:none;fill-rule:nonzero;fill:rgb(87.843138%,87.843138%,87.843138%);fill-opacity:1;" d="M 7.9375 16.125 C 6.472656 16.125 5.292969 17.308594 5.292969 18.773438 L 5.292969 26.710938 C 5.292969 28.175781 6.472656 29.355469 7.9375 29.355469 L 23.816406 29.355469 C 25.28125 29.355469 26.460938 28.175781 26.460938 26.710938 L 26.460938 18.773438 C 26.460938 17.308594 25.28125 16.125 23.816406 16.125 Z M 9.261719 18.773438 L 22.492188 18.773438 C 23.226562 18.773438 23.816406 19.363281 23.816406 20.09375 L 23.816406 25.386719 C 23.816406 26.121094 23.226562 26.710938 22.492188 26.710938 L 9.261719 26.710938 C 8.527344 26.710938 7.9375 26.121094 7.9375 25.386719 L 7.9375 20.09375 C 7.9375 19.363281 8.527344 18.773438 9.261719 18.773438 Z M 9.261719 18.773438 "/>
</g>
</svg>
